src/assets/icons/EUR.svg

<svg width="80" height="80" viewBox="0 0 80 80" fill="none" xmlns="http://www.w3.org/2000/svg">
<rect width="80" height="80" rx="8" fill="#1D324B"/>
<g clip-path="url(#clip0_1_1164)">
<path d="M50.8334 29.5834C49.0752 27.5736 46.8476 26.2142 44.4299 25.6756C42.0122 25.1369 39.512 25.443 37.2428 26.5554C34.9736 27.6679 33.0364 29.5372 31.6742 31.9289C30.3119 34.3207 29.5852 37.1284 29.5852 40C29.5852 42.8717 30.3119 45.6794 31.6742 48.0711C33.0364 50.4629 34.9736 52.3322 37.2428 53.4446C39.512 54.5571 42.0122 54.8632 44.4299 54.3245C46.8476 53.7858 49.0752 52.4264 50.8334 50.4167" stroke="white" stroke-width="2" stroke-linecap="round" stroke-linejoin="round"/>
<path d="M42.0833 35.8333H25.4166M25.4166 44.1666H42.0833" stroke="white" stroke-width="2" stroke-linecap="round" stroke-linejoin="round"/>
</g>
<defs>
<clipPath id="clip0_1_1164">
<rect width="50" height="50" fill="white" transform="translate(15 15)"/>
</clipPath>
</defs>
</svg>

<svg width="80" height="80" fill="none" xmlns="http://www.w3.org/2000/svg"><rect width="80" height="80" rx="8" fill="#1D324B"/><g clip-path="url(#a)" stroke="#fff" stroke-width="2" stroke-linecap="round" stroke-linejoin="round"><path d="M50.833 29.583c-1.758-2.01-3.985-3.369-6.403-3.907-2.418-.54-4.918-.233-7.187.88-2.27 1.112-4.207 2.981-5.569 5.373-1.362 2.392-2.089 5.2-2.089 8.071 0 2.872.727 5.68 2.09 8.071 1.361 2.392 3.299 4.261 5.568 5.374 2.269 1.112 4.77 1.418 7.187.88 2.418-.54 4.645-1.899 6.403-3.908M42.083 35.833H25.417m0 8.334h16.666"/></g><defs><clipPath id="a"><path fill="#fff" transform="translate(15 15)" d="M0 0h50v50H0z"/></clipPath></defs></svg>
